X:1
T:- # -
%%score [ 1 2 3 4 ]
L:1/8
M:4/4
K:F
V:1 treble nm="Sopran" snm=" "
V:2 treble nm="Alt"
V:3 treble-8 nm="Tenor"
V:4 bass nm="Baß"
V:1
"^Christobal de Morales" c6 c2 | A2 A2 F4 | c6 c2 | d4"^I.  Ave domine" e4 |"^5" c4 f3 e | %5
w: A- ve,|do- mi- ne|Ie- su|Chri- ste,|rex be- ne-|
 d4 c2 c2 | f3 e d2 c2 | B2 d3 c"^1546" c2- | c2 =B2 c4- |"^10" c8- | c4 z2 c2 | f6 f2 | %12
w: dic- te, rex|be- ne- dic *||* * te,||* rex|be- ne-|
 edcB A2 c2 | d2 c4 =B2 |"^15" c8 | z8 | c4 f4- | f2 e2 c2 d2- | dc c4 =B2 |"^20" c8 | z8 | z8 | %22
w: dic * * * * *||~te,||rex be-|* ne- dic *||~te,|||
 c6 c2 | B4 A2 F2 |"^25" G2 A2 B4 | A4 G4 | GFGA B4 | c4 z4 | z4 c4- |"^30" c2 c2 B4 | %30
w: lu- men|cae- li, prae-|ci- um mun-|* di,|mun * * * *|di,|lu-|* men cae-|
 A2 F2 G2 A2 | B4 A4 | G2 c4 =B2 | c4 A4 |"^35" z8 | z4 c4 | d4 e4 | c4 f4- | f2 f2 e4 | %39
w: li, prae- ci- um|mun *||* di.||Ag-|nus de-|i, sa-|* lus mun-|
"^40" d2 c4 =B2 | c3 B A4 | z4 F4 | G2 A4 B2 | G4 A2 c2- |"^45" c2 =B2 c4 | z2 F2 G4 | A2 B2 G4 | %47
w: |di, * *|ho-|\-sti- a sa||* * cra,|ho- sti-|a sa- *|
 F4 z4 | c6 A2 |"^50" B2 c2 d4 | c2 f2 e2 d2- | dc c4 B2 | G2 A2 B4 | A8 |"^55" z2 A4 F2 | %55
w: cra,|ver- bum|ca- ro fac-||||~tum,|ver- bum|
 G2 A2 B4 | A3 B c4- | c8 | z2 F2 c4- |"^60" c2 B2 A4 | G4 z2 G2 | c6 B2 | A4 G2 G2 | A6 G2 | %64
w: ca- ro fac-|\-tum, * *||fons pi-|* e- ta-|tis, fons|pi- e-|ta- tis, fons|pi- e-|
"^65" F4 E2 G2- | GF F4 E2 | F4 z4 | c8 | A4 B2 B2 |"^70" G4 A4- | A4 F4 | B2 B2 G4- | %72
w: ta * *||~tis.|A-|ve, do- mi-|ne, a-|* ve,|do- mi- ne|
 G2 G2 A2 FG | AB c4 B2 |"^75" c4 d4 | G2 c2 B2 d2- | dc c4 =B2 | c4 z2 c2- | c2 c2 d4 | %79
w: * Ie- su Chri *|||ste, rex be- ne-|* * * dic-|te, lu-|* men cae-|
"^80" c4 f4 | e2 d2 f3 e | d4 c4 | z2 c2 B2 A2 | c3 B A4 |"^85" G2 B4 A2- | AG/F/ G2 A2 B2 | %86
w: li, prae-|ci- um mun *|* di,|prae- ci- um|mun * *|||
 G2 c4 B2 | A2 c4 B2 | c2 c2 d2 f2- |"^90" f2 e2 c4 | z4 c4 | B2 A2 c2 d2- | dc c4 =B2 | %93
w: di, prae- ci-|um mun *||* * di,|prae-|ci- um mun *||
 c3 B A2 d2 |"^95" c8- | c4 z2 G2 | A2 F2 c3 d | e2 f4 e2 | d4 c4- |"^100" c8 | z2 G2 A2 F2 | %101
w: |di|* gau-|di- um no- *||* strum,||gau- di- um|
 c3 d e2 f2- | f2 e2 d4 | c6 B2 |"^105" G2 A2 B4 | A8- | A4 z4 | c4 c2 B2 | A2 c4 G2- | %109
w: no * * *||||strum,||pa- nis an-|ge- lo- *|
"^110" G2 c2 B2 G2 | A4 z2 A2- | A2 G2 A2 B2 | A4 c4- | c4 A4 |"^115" B8 | A4 F3 G | AGFE F2 G2- | %117
w: |rum, cor-|* dis nu- bi-|lus, rex|* et|spon-|sus vir- gi-|ni * * * * ta|
 GF F4 E2 | F8 |[M:4/4]"^Secunda pars" z8 | z8 | z8 | z8 | z4 F4 |"^125" A4 c4- | c2 c2 c4 | %126
w: |~tis.|||||A-|ve, do-|* mi- ne|
 z2 c4 B2 | c2 A2 B4 | A2 c4 d2 |"^130" c2 f4 e2 | f8 | z2 A2 B4 | A2 c4 =B2 | c4 z4 | %134
w: Ie- su|Chri * *|ste, rex be-|ne- dic- *|te,|rex be-|ne- dic *|\-te,|
"^135" z2 F4 G2 | A6 F2 | G2 A2 B4 | A6 GF | E2 c4 d2 |"^140" e2 c2 d2 e2 | f8 | e2 f2 d2 cB | %142
w: splen- dor|pa- tris,|prin- ceps pa-||cis, splen- dor|pa- tris, prin- ceps|pa-||
 d2 c4 =B2 | c4 z2 d2 |"^145" e2 c2 f4 | e4 d2 c2- | c2 =B2 c4 | z2 G2 A2 F2 | B4 A4- | %149
w: |cis, ia-|nu- a cae-||* * li,|ia- nu- a|cae- *|
"^150" A2 B2 G4 | F2 A4 G2 | E2 F2 G4 | z8 | z2 F2 c4- |"^155" c2 A2 G2 c2 | B2 G2 A4 | B4 c4 | %157
w: |li, ia- nu-|a cae- li,||pa- nis|* vi- vus vir-|gi- nis par-|* tus,|
 z2 F2 G4 | A4 B3 A |"^160" G4 F2 B2 | G2 c3 B A2 | G2 F4 E2 | F8- | F8 |"^165" z8 | c6 c2 | %166
w: vas pu-|ri- ta- *|* ~tis, vas|pu- ri- * *|ta * *|tis.|||A- ve,|
 A4 A4 | F8 | B2 B2 A4 |"^170" G2 c2 B2 A2- | A2 G2 F4 | E8 | z2 c2 c2 f2- | fedc d2 e2 | %174
w: do- mi-|ne|Ie- su Chri-|ste, rex be- *|* ne- dic-|~te,|laus an- ge-|* * * * lo- *|
"^175" c4 z4 | z4 z2 c2 | c2 f3 edc | d2 e2 c4 | z8 |"^180" z2 c2 c2 f2- | fedc d2 e2- | %181
w: rum,|laus|an- ge * * *|\-lo- * rum,||glo- ri- a|* * * * * sanc-|
 e2 c2 f4- | f2 e2 d2 c2- | c2 B2 c4 |"^185" z2 c2 d2 f2 | e2 d2 c4 | d2 c4 =B2 | c8 | z2 A2 B4 | %189
w: * * to-||* * rum,|vi- si- o|pa * *||cis|de- i-|
"^190" c8 | A4 B4- | B8 | A4 z2 F2- | F2 F2 c4 |"^195" A4 B2 c2 | d3 c BA G2- | G2 c4 =B2 | c8- | %198
w: tas|in te-||gra, ve-|* rus ho-|mo, flos et|vi * * * *||ta,|
 c4 z4 |"^200" z4 z2 c2- | c2 c2 f4 | e8 | c4 c2 f2- | f2 d4 d2 |"^205" e6 d2- | dc c4 =B2 | %206
w: |ve-|* rus ho-|mo,|ve- rus ho-|* mo, flos|et vi||
 cdec d2 c2- | c2 =B2 c4 | z4 c4 |"^210" B2 A2 G3 A | B2 c2 B4- | B2 A4 G2- | GF F4 E2 | F8 | %214
w: |* * ta|vir-|gi- ni- ta *||||~tis.|
[M:4/4]"^Tertia pars" z8 | z8 | z8 | z8 | z8 |"^220" z8 | z8 | z8 | c6 c2 | d2 e2 f4 | %224
w: ||||||||A- ve,|do- mi- ne|
"^225" f2 f2 e4 | d8 | c3 d e2 f2 | d2 e2 c2 f2- | fedc B2 c2 |"^230" d2 c4 B2 | c8 | z4 z2 c2- | %232
w: Ie- su Chri-|ste,|rex * be- ne-|dic- * te, rex|* * * * * be-|ne- dic- *|~te,|vi-|
 c2 B2 G2 A2 | B2 c2 A2 B2 |"^235" c3 B/A/ G4 | F2 A4 G2 | E2 F2 G2 F2- | F2 E2 F4- | F4 z4 | %239
w: * ta dul- cis|ve- ri- tas per-|\-fec * * *|ta, ve- ri-|tas per- fec- *|* * ta,||
"^240" f4 e2 c2 | e4 d2 f2- | f2 c2 e4 | d2 c3 B B2 | c6 A2 |"^245" B3 c d4 | c4 z2 c2 | d2 e2 f4 | %247
w: prae- mi- um|no- strum, cha-|* ri- tas|im- men- * *|sa, im-|men * *|~sa, cha-|ri- tas im-|
 e6 c2- | cdec d4 |"^250" c8 | z8 | c6 c2 | B4 A2 c2- | c2 BA B2 c2 |"^255" F4 z2 F2 | %255
w: \-men- *||sa,||fons a-|mo- * *||\-ris, dul-|
 G2 A2 B3 A/G/ | A2 c2 B2 A2- | A2 G2 A4 | z2 c2 d2 e2 |"^260" f6 e2 | d2 c2 B4 | A3 B c2 B2- | %262
w: ce- do, pax * *|* du- ra- *|* bi- lis,|dul- ce- do,|pax du-|\-ra * *||
 BA A4 G2 | A4 z2 A2 |"^265" G2 G2 B4 | A6 A2 | G2 G2 B4 | A4 c4 | B2 B2 d4 |"^270" c6 c2 | %270
w: * * * bi-|~lis, re-|qui- es no-|stra, re-|qui- es no-|\-stra, vi-|ta per- hen-|nis, vi-|
 B2 B2 d4 | c2 d3 c c2- | c2 =B2 c4 | z8 |"^275" z4 c4 | f6 e2 | d2 c4 =B2 | c4 z2 F2 | c6 B2 | %279
w: ta per- hen-||* * ~~nis,||mi-|se- re-|re no- *|bis, mi-|se- re-|
"^280" A2 G2 F4- | F2 F2 c4 | B2 A4 G2- | GF F4 E2 | F8- | F8- | F8 |] %286
w: \-re no- bis,|* mi- se-|re- re no||bis.|||
V:2
 z8 | z8 | F6 F2 | D2 D2 C4 | F6 F2 | G4 A4 | F4 B3 A | G2 F2 E2 F2 | D4 E4- | E4 C4 | z2 C4 C2 | %11
w: ||A- ve,|do- mi- ne|Ie- su|Chri- ste,|rex be- ne-|dic * * *||* ~te,|a- ve|
w: |||||||||||
 A,2 A,2 F,2 F2 | G4 F3 G | A4 G3 F | E4 A4 | F2 F2 B3 A | G2 A2 F4 | G3 F E2 G2- | G2 F2 G4- | %19
w: * * * Ie-|su Chri *|||\-ste, rex be- ne-|dic * *||* * te,|
w: do- mi- ne *||||||||
 G2 G2 E2 E2 | D4 C4 | z8 | z4 G4- | G2 G2 F4 | E2 C2 D2 E2 | F4 E4- | E4 D4 | C4 z4 | z8 | G6 G2 | %30
w: * rex be- ne-|dic- ~te,||lu-|* men cae-|~li, prae- ci- um|mun- *||di,||lu- men|
w: |||||||||||
 F4 E2 C2 | D2 E2 F4 | E2 F2 D4 | z2 C4 D2 | E4 C2 F2- | F2 G2 A4 | F2 F2 G4 | A8 | F4 G4 | %39
w: cae- li prae-|ci- um mun-|* * di.|Ag- nus|de- i, ag-|* nus de-|i, ag- nus|de-|i, sa-|
w: |||||||||
 F2 E2 D4 | C4 z4 | C4 D4 | E2 F4 D2 | C8 | z4 C4 | D4 E4 | F2 D2 C4 | F,2 F2 G2 F2- | F2 E2 F4 | %49
w: * lus mun-|di,|ho- sti-|\-a sa- *|cra,|ho-|sti- a|sa- * *|* ho- sti- a|* sa- cra,|
w: ||||||||cra, * * *||
 z2 F4 D2 | E2 F2 G4 | F8 | E2 C3 B, B,2 | C4 z2 F2- | F2 C2 F2 A2 | G2 F4 E2 | F4 G4 | C4 z2 C2 | %58
w: ver- bum|ca- ro fac-|||~tum, ver-|* bum ca- fo|fac- * *||tum, fons|
w: |||||||||
 F6 E2 | D4 C4- | C4 G,4 | z2 C2 G4- | G2 F2 E3 D | C2 A,2 C4- | C2 B,2 G,4 | C8 | A,8 | z4 F4- | %68
w: pi- e-|ta- *||fons pi-|* e- ta- *|||||A-|
w: ||* ~tis,|||\-tis, fons pi-|* e- ta-||~tis.||
 F4 D4 | E2 E2 C4- | C4 D4- | D4 E4- | E4 C4 | F3 E D4 | C4 F4 | E2 G4 F2 | A4 G4 | E4 F3 E/D/ | %78
w: * ve,|do- mi- ne,|* Ie-|* su|* Chri-||ste, rex|be- ne- dic-|||
w: ||||||||||
 C2 F2 D4 | z2 F4 F2 | G4 F4 | B4 A2 G2 | A4 F4 | G2 A2 FEDC | B,4 C2 F2- | F2 ED EF G2 | %86
w: * * ~te,|lu- men|cae- li,|prae- ci- um|mun *||di, mun *|* * * * * di,|
w: ||||||||
 z2 F2 E2 D2 | F3 E D4 | C4 F4 | G2 G2 A4 | B4 A4 | z2 F2 E2 D2 | F3 E D4 | C4 F4- | F4 E4 | %95
w: prae- ci- um|mun- * *|di, prae-|\-ci- um mun-|* di,|prae- ci- um|mun- * *||* di,|
w: |||||||||
 z2 C2 D2 B,2 | FGAB c3 B | A4 G4 | FEFG A3 G/F/ | E4 z2 C2 | D2 B,2 F3 G | AB c3 B A2 | G4 F3 G | %103
w: gau- di- um|no * * * * *|||strum, gau-|di- um no- *|||
w: ||||||||
 AB A4 GF | E2 F4 E2 | F8- | F4 z2 F2- | F2 F2 E2 D2 | F4 C4 | z2 C2 D2 E2 | C8 | E6 D2 | %112
w: ||strum,|* pa-|* nis an- ge-|lo- rum,|an- ge- lo-|rum,|cor- dis|
w: |||||||||
 E2 F2 E4- | E4 C4 | B,4 B,4 | C2 A,2 B,4 | A,3 B, C2 C2 | D4 C4- | C8 |[M:4/4] z8 | z8 | z8 | z8 | %123
w: nu- bi- ~lus,|* rex|et spon-|sus vir- gi-|* * * ni-|ta- ~tis.||||||
w: |||||||||||
 C4 D4 | F6 F2 | F4 z2 F2- | F2 E2 F2 G2 | E2 F2 B,4 | z2 F4 D2 | E2 F2 G4 | F2 F,2 A,3 B, | %131
w: A- ~ve,|do- mi-|ne Ie-|* su Chri *|* * ste,|rex be-|* ne- dic-|te, * be- ne-|
w: |||||||* rex * *|
 C2 A,2 G,4 | A,4 z4 | z2 C4 D2 | E2 C2 D2 E2 | F6 D2- | DC C4 B,2 | C2 c4 B2 | c4 A4 | z2 F4 G2 | %140
w: dic * *|~te,|splen- dor|pa- tris, prin- ceps|pa- *||cis, prin- ceps|pa- ~cis,|splen- dor|
w: |||||||||
 A6 F2 | G2 A2 B4 | A4 z2 D2 | E2 C2 F4 | E4 z2 F2 | G2 G2 A3 G | F2 G2 E2 F2- | F2 E2 F2 D2- | %148
w: pa- tris,|prin- ceps pa-|cis, ia-|nu- a cae-|~li, ia-|\-nu- a cae *||* * li, ia-|
w: ||||||||
 D2 CB, CB,A,G, | F,2 F4 E2 | F4 z4 | z8 | z4 C4 | F6 E2 | C2 F2 E2 C2 | D2 E2 F2 A2 | G4 C2 C2 | %157
w: * nu * * * * *|* cae- *|~li,||pa-|nis vi-|vus vir- gi- nis|par * * *|* tus, vas|
w: |a * *||||||||
 D4 E4 | F3 E D2 F2- | F2 E2 D4 | C2 C4 C2 | D4 C4 | z2 C4 C2 | A,4 A,4 | F,8 | F8 | z2 F4 F2 | %167
w: pu- ri-|ta- * * *||tis, pu- ri-|ta- ~tis.|A- ve,||||a- ve|
w: ||||||do- mi-|ne|||
 D6 C2 | B,4 F2 F2 | E4 D2 F2 | F2 E2 D4 | C8 | z4 F4 | F2 B3 AGF | G2 A4 F2 | z8 | F4 F2 B2- | %177
w: do- mi-|~ne Ie- su|Chri- ~ste, rex|be- ne- dic-|~te,|laus|an- ge- * * *|* lo- ~rum,||laus an- ge-|
w: ||||||||||
 BAGF G2 A2- | A2 F2 z4 | z4 F4 | F2 B3 AGF | G2 A4 F2 | G4 F2 A2 | G2 F2 A4 | z4 F4 | G2 B2 A3 G | %186
w: * * * * * lo-|* rum,|glo-|ri- a * * *|* sanc- to-|* rum, sanc-|to- * rum,|vi-|si- o pa *|
w: |||||||||
 F2 E2 D4 | C4 z2 C2- | C2 C2 G4 | E4 A4- | A4 G4 | F8- | F8 | z2 C4 C2 | F4 D2 E2 | F2 G3 FED | %196
w: |cis, de-|* i- tas|in- te-||gra,||ve- rus|ho- mo, flos|et vi- * * *|
w: ||||||||||
 E2 F2 D4 | E8 | C4 z4 | z8 | z2 F4 F2 | G8 | A4 z2 F2- | F2 F2 B4 | G2 G4 G2 | A4 G4 | E4 z2 F2 | %207
w: ||~ta,||ve- rus|ho-|\-mo, ve-|* rus ho-|mo, flos et|vi- *|ta vir-|
w: |||||||||||
 E2 D2 C3 D | E2 F2 E2 G2- | G2 F2 E4 | D2 F2 G2 D2- | DE F3 EDC | D2 C3 B, C2 | A,8 |[M:4/4] z8 | %215
w: gi- ni- ta- *|||tis, vir- gi- ni|||.||
w: |||||* * * ta-|~tis.||
 z8 | z8 | z8 | z8 | z8 | z8 | z8 | z8 | z4 F4- | F2 F2 G2 A2 | B4 B2 B2 | A8 | G4 F3 G | %228
w: ||||||||A-|* ve, do- mi-|ne Ie- su|Chri-|ste, rex *|
w: |||||||||||||
 A2 B2 G2 A2 | F2 E2 D4 | C8 | z2 F4 E2 | C2 D2 E2 F2 | D2 G2 F2 ED | E2 C2 D2 E2 | F4 z4 | z8 | %237
w: be- ne- dic- *||~te,|vi- ta|dul- cis ve- ri-|tas per- fec * *||~ta,||
w: |||||||||
 z8 | z4 B4 | A2 F2 A4 | G4 B4 | F2 A2 G2 A2 | F2 E2 D4 | C3 D E2 F2 | G4 F3 G | A4 z2 A2- | %246
w: |prae-|mi- um no-|strum, cha-|\-ri- tas im- men||||~sa, cha-|
w: |||||||||
 A2 G2 F2 D2 | G6 G2- | G2 E2 F2 G2 | A8 | z8 | z8 | z4 F4- | F2 F2 E4 | D2 F4 ED | E2 F2 B,4 | %256
w: * ri- tas *|im- men||sa,|||fons|* a- mo-||* * ~~ris,|
w: ||||||||||
 z2 C2 D2 E2 | F2 ED C2 F2 | E2 F2 D2 C2 | F3 G A2 G2 | B2 A4 G2 | A4 z4 | z8 | F4 C2 C2 | E4 D4 | %265
w: dul- ce- do,|pax * * * du-|ra- bi- lis, dul-|ce- do, pax du-|\-ra * bi-|lis,||re- qui- es|no- stra,|
w: |||||||||
 F4 C2 C2 | E4 D4 | F4 E2 E2 | G4 F4 | A4 E2 E2 | G4 F2 G2 | A3 G/F/ E2 F2 | G4 A4 | D4 F4 | %274
w: re- qui- es|no- stra,|vi- ta per-|hen- nis,|vi- ta per-|hen- * *||* ~nis,|mi- se-|
w: |||||||||
 E2 D3 C C2- | C2 B,2 C2 G2- | G2 E2 F2 D2 | E2 C4 B,2 | C2 C2 F4- | F2 E2 D2 C2- | CB, B,2 C2 E2 | %281
w: re- re * no-|* ~~- bis, mi-|* se- re- re|no- * *|bis, mi- *|* se- re- *||
w: |||||||
 F6 E2 | D4 C4 | A,4 D4- | D8 | C8 |] %286
w: ||re no-||~bis.|
w: |||||
V:3
 z8 | z8 | z8 | z8 | z8 | z8 | z8 | z8 | z4 c4- | c2 c2 A2 A2 | F4 c4- | c2 c2 d4 | e4 c4 | %13
w: ||||||||A-|* ve, do- mi-|ne Ie-|* su Chri-|ste, rex|
 f3 e d4 | c2 c2 f3 e | d2 c2 B2 d2- | dc c4 =B2 | c6 B2 | c2 c2 d4 | c4 z2 g2- | g2 g2 f4 | %21
w: be- ne- dic-|te, rex be- ne-|\-dic * * *||te, rex|be- ne- dic-|te, lu-|* men cae-|
 e2 c2 d2 e2 | f4 e4 | d2 B2 c2 d2- | dc c4 B2 | c8 | z2 g4 g2 | f4 e2 c2 | d2 e2 f4 | e4 d2 B2 | %30
w: \-li, prae- ci- um|mun- *|||di,|lu- men|cae- li, prae-|\-ci- um mun-||
 c2 d3 c c2- | c2 B2 c4- | c4 z4 | z4 f4 | g4 a4 | f2 d2 f2 e2 | d4 c2 c2 | f3 e d2 c2- | %38
w: |* * di.||Ag-|nus de-|\-i, sa- * lus|mun- di, sa-|* * lus mun|
 c2 B2 c2 G2 | B2 c2 G4- | G4 z2 F2 | G2 A4 B2 | G2 c2 d4 | e4 f3 e | d4 c2 f2- | fedc B4 | %46
w: * * di, sa-|lus mun- di,|* ho-|sti- a sa-|\-cra, ho- sti-|a sa *|||
 c2 f4 e2 | fedc B2 A2 | G4 F4 | z8 | c6 G2 | B2 c2 d4 | c2 f4 e2 | f2 c4 A2 | B2 A2 d4 | %55
w: cra, ho- sti-|a * * * * sa-|* cra,||ver- bum|ca- ro fac-||tum, ver- bum|ca- ro fac-|
 c2 d2 B4 | c8 | z2 A2 c4- | c2 B2 A2 c2 | G2 d2 f4- | f2 e2 d4 | c2 c2 d4- | d2 c2 c4 | A4 z4 | %64
w: |\-tum,|fons pi-|* e- ta- *|tis, fons pi-|* e- ta-|tis, fons pi-|* e- ta-|\-tis,|
 F4 c3 B | A2 GF G4 | F8- | F8 | z8 | c8 | A4 B2 B2 | G4 c4- | c4 A4 | a4 g4 | f2 e2 d4 | %75
w: fons pi- e-|ta- * * *|tis.|||A-|\-ve, do- mi-|ne Ie-|* su|Chri- *||
 e2 c2 d4 | e2 f2 d4 | c4 z2 f2 | e2 a2 f2 g2 | a8 | z8 | z4 z2 c2- | c2 c2 d4 | c4 f4 | %84
w: ste, rex be-|\-ne- * dic-|~te, rex|be- ne- dic- *|~te,||lu-|* men cae-|\-li, prae-|
 e2 d2 f3 e | d4 c2 d2 | e2 c2 g4 | c4 z4 | z2 c2 B2 A2 | c3 B A4 | G2 d2 cBAG | F3 G A2 B2 | %92
w: ci- um mun- *|||di,|prae- ci- um|mun * *|||
 A4 z4 | z4 z2 B2 | A2 F2 c3 d | e2 f4 e2 | d4 c3 B | A2 F2 c4 | z2 B2 A2 F2 | c3 d e2 f2- | %100
w: di,|gau-|di- um no- *|||* * strum,|gau- di- um|no * * *|
 f2 e2 d4 | c6 F2 | c4 z2 B2 | A2 F2 c2 d2- | dc c4 B2 | c4 F4 | c4 c2 B2 | A2 c4 G2 | z2 c3 def | %109
w: ||strum, gau-|di- um no *||* strum,|pa- nis an-|\-ge- lo- rum,|an- ge- lo *|
 g2 f4 e2 | f8 | z4 z2 g2- | g2 f2 g2 a2 | g4 f4 | d4 e4 | f4 d4 | c3 B A2 G2 | A2 B2 G4 | F8 | %119
w: |rum,|cor-|* dis nu- bi-|\-lus, rex|et spon-|sus vir-|gi- ni- ta *||~tis.|
[M:4/4] z4 F4 | A4 c4- | c2 c2 c4 | z2 c4 B2 | c2 A2 B4 | F8- | F8 | z2 c4 d2 | c2 f4 e2 | f4 z4 | %129
w: A-|ve, do-|* mi- ne|Ie- su|Chri * *|ste,||rex be-|ne- dic- *|te,|
 z8 | c6 d2 | e2 c2 d2 e2 | f3 e d4 | c4 f4 | z8 | c6 d2 | e2 c2 d2 e2 | f3 e d4 | c4 f4 | e4 z4 | %140
w: |splen- dor|pa- tris, prin- ceps|pa- * *|\-cis, *||splen- dor|pa- tris, prin- ceps|pa * *|cis, *||
 c6 d2 | e2 c2 d2 e2 | f3 e dc d2- | dc c4 =B2 | c4 z2 d2 | e2 c2 f3 e | d4 c2 A2 | G4 F2 f2- | %148
w: splen- dor|pa- tris, prin- ceps|pa * * * *||~cis, ia-|\-nu- a cae *||* ~li, ia-|
 f2 e2 f4- | f2 B2 c4 | z2 F2 c4- | c2 A2 G2 c2 | B2 G2 A2 c2- | c2 B2 c3 B | A2 c3 B A2 | %155
w: * nu- a|* cae- li,|pa- nis|* vi- vus vir-|\-gi- nis par *|||
 G2 c4 d2- | d2 e4 f2- | fedc B4 | c2 d2 B4 | c4 z2 F2 | G4 A4 | B3 A G4 | F8- | F8 | c6 c2 | %165
w: tus, vas pu-|* ri- ta|||\-tis, vas|pu- ri-|ta- * *|tis.||A- ve,|
 A4 A4 | F8 | B2 B2 A4 | G2 d4 c2- | cBAG F3 G | AB c2 A2 B2 | G2 G2 G2 c2- | cBAG A4 | z4 z2 c2 | %174
w: do- mi-|\-ne|Ie- su Chri-|ste, rex be-|* ne- dic * * *||te, laus an- ge-|* * lo- * ~rum,|laus|
 c2 f3 edc | d2 e4 c2- | c2 d3 cBA | G2 c2 c2 f2- | fedc d2 e2- | e2 c4 d2- | dcBA B2 c2- | %181
w: an- ge * * *|* lo- *||\-rum, glo- ri- a|* * * * * sanc-|* to *||
 cBAG F4 | z2 c2 d2 f2 | e2 d2 c2 FG | AB c4 B2 | c2 F2 A4 | B2 c2 G4 | A4 f4- | f4 d4 | c8 | %190
w: * * * * ~rum,|vi- si- o|pa * * * *||* cis, vi-|si- o pa-|cis, de-|* i-|tas|
 d4 B3 c | d8 | c8 | A8 | F4 z4 | z8 | z4 G4- | G2 G2 c4 | A4 B2 c2 | d3 c BA G2- | %200
w: in- te- *||||gra,||ve-|* rus ho-|mo, flos et|vi * * * *|
 G2 c3 =B/A/ B2 | c4 z2 c2- | c2 c2 f4 | d4 g3 f | ed c4 d2 | e2 f2 d4 | c3 B A2 F2 | G4 A2 c2- | %208
w: |ta, ve-|* rus ho-|mo, flos *|* * * et|vi * *|||
 c2 B2 c4 | z4 c4 | B2 A2 G3 A | B2 c2 A2 B2- | B2 A2 G4 | F8 |[M:4/4] c6 c2 | d2 e2 f4 | %216
w: * * ta|vir-|gi- ni- ta *|||~tis.|A- ve,|do- mi- ne|
 f2 f2 e4 | d8 | c3 d e2 f2 | d2 e2 c2 f2- | fedc B2 c2 | d2 c4 =B2 | cdef g2 a2- | a2 g2 a4- | %224
w: Ie- su Chri-|ste,|rex * be- ne-|dic- * te, be|||* * * * * ne-|* dic- te,|
 a4 z4 | z2 g2 f2 d2 | f4 e2 a2 | b2 g2 a3 g | fe d3 e f2- | f2 g2 a2 g2- | gf e3 d c2- | %231
w: |rex be- ne-|dic- te, rex|be- ne- dic *||||
 c2 B2 c4 | z8 | z2 c4 B2 | G2 A2 B2 c2 | A4 z2 c2- | c2 B2 G2 A2 | B2 c2 A2 B2- | B2 A2 G4 | %239
w: * * te,||vi- ta|dul- cis ve- ri-|tas, vi-|* ta dul- cis|ve- ri- tas per-|* * fec-|
 F4 z2 f2 | e2 c2 g2 d2- |"^_____________" de f2 c4 | z8 | f4 e2 c2 | e4 d2 f2- | f2 c2 e4 | %246
w: ta, prae-|mi- um no- strum,|||prae- mi- um|no- strum, cha-|* ri- tas|
 d2 c4 B2 | c4 z2 c2- | c2 c2 B4 | A2 c4 BA | B2 c2 F4 | z2 F2 G2 A2 | B2 G2 A3 B | c4 z4 | z8 | %255
w: im- men- *|\-sa, fons|* a- mo-||* * ris,|dul- ce- do,|pax du- ra- bi-|~lis,||
 z2 c2 d2 e2 | f3 e d2 c2 | B4 A2 c2- | cB A4 G2 | F4 z2 c2 | d2 e2 f2 ed | c2 f2 e2 d2- | %262
w: du- ra- *|||* * * bi-|~lis, dul-|\-ce- do pax * *|* du- ra- *|
 d2 c2 B4 | A8 | c4 B2 B2 | d4 A4 | c4 B2 B2 | d4 c4 | e4 d2 d2 | f4 c4 | e4 d2 d2 | f4 c4 | %272
w: * bi- *|~~lis,|re- qui- es|no- stra,|re- qui- es|no- stra,|vi- ta per-|hen- nis,|vi- ta per-|hen- nis,|
 d4 f4- | f2 e2 d2 c2- | c2 =B2 c4 | F4 G3 A | B2 c2 d4 | c2 c2 f4- | f2 e2 d4 | c3 B AG A2- | %280
w: mi- *|* se- re *|* * re|* no *||bis, mi- *|* se- re-||
 A2 GF G4 | F3 G AB c2 | A2 B2 G4 | F4 B4- | B8 | A8 |] %286
w: |||re no-||~bis.|
V:4
 z8 | z8 | z8 | z8 | z8 | z8 | z8 | z8 | z8 | z8 | z4 F,4- | F,2 F,2 D,2 D,2 | C,4 F,4- | %13
w: ||||||||||A-|* ve, do- mi-|ne Ie-|
 F,2 F,2 G,4 | A,4 F,4 | B,3 A, G,2 F,2 | E,2 F,2 D,4 | C,6 G,2 | A,2 A,2 G,4 | z2 C4 C2 | %20
w: * su Chri-|ste, rex|be- ne- dic- *||~te, be-|ne- dic- te,|lu- men|
 B,4 A,2 F,2 | G,2 A,2 B,2 G,2 | F,G,A,B, C3 B, | G,2 G,2 A,2 B,2 | %24
w: cae- li, prae-|\-ci- um mun *||di, prae- ci- um|
"^© Michael Wendel 2005\nThis edition may be freely duplicated, distributed, performed or recorded for non-profit performance or use.\n" C2 A,2 G,4 | %25
w: mun * *|
 F,4 z2 C2- | C2 C2 B,4 | A,2 F,2 G,2 A,2 | B,2 G,2 F,G,A,B, | C3 B, G,2 G,2 | A,2 B,2 C2 A,2 | %31
w: di, lu-|* men cae-|li, prae- ci- um|mun * * * * *|* * di, prae-|ci- um mun *|
 G,4 F,4 | z2 F,2 G,4 | A,4 F,4 | C3 B, A,2 F,2 | B,4 A,2 C2- | C2 B,2 C3 B, | A,2 G,2 F,3 E, | %38
w: * di.|Ag- nus|de- i,|sa~~- * lus mun-||||
 D,4 C,4 | z8 | C,4 D,4 | E,2 F,2 D,4 | C,2 F,2 D,2 B,,2 | C,4 F,4 | G,4 A,4 | B,3 A, G,4 | %46
w: * di,||ho- sti-|a sa *|cra, sa * *|cra, ho-|sti- a|sa- * *|
 F,2 B,,2 C,4 | D,4 _E,2 F,2 | C,4 z2 F,2 | G,2 A,2 B,4 | A,4 z4 | z2 F,4 D,2 | E,2 F,2 G,4 | F,8 | %54
w: cra, ho- sti-|a sa- *|cra, ho-|\-sti- a sa-|cra,|ver- bum|ca- ro fac-|tum,|
 z2 F,4 D,2 | E,2 F,2 G,4 | F,4 C,4 | F,6 E,2 | D,4 C,4 | z4 F,4 | C6 B,2 | A,4 G,3 F, | %62
w: ver- bum|ca- ro fac-|\-tum, fons|pi- e-|ta- ~tis,|fons|pi- e-|ta- * *|
 D,2 F,2 C,2 C,2 | F,6 E,2 | D,4 C,4- | C,8 | z4 C4- | C4 A,4 | D2 D2 G,4 | z4 F,4- | F,4 D,4 | %71
w: * * tis, fons|pi- e-|ta- tis.||A-|* ve,|do- mi- ne,|a-|* ve,|
 G,2 G,2 C,4- | C,4 F,4- | F,4 G,4 | A,2 C4 B,2 | C3 B, G,2 B,2 | A,2 F,2 G,4 | A,4 F,3 G, | %78
w: do- mi- ne|* Ie-|* su|Chri * *|* * ste, rex|be- ne- dic-||
 A,4 B,4 | F,6 F,2 | C2 B,2 D3 C | B,4 C4 | F,4 z4 | z2 F,4 F,2 | G,4 F,4 | B,4 A,2 G,2 | %86
w: |~te, rex|be- ne- dic- *||te,|lu- men|cae- li,|prae- ci- um|
 C2 A,2 G,4 | F,4 G,3 F, | E,2 F,2 D,4 | C,4 F,4 | E,2 D,2 F,3 E, | D,4 C,2 G,2 | F,4 z4 | %93
w: mun * *|||\-di, prae-|ci- um mun- *||di,|
 C,4 D,2 B,,2 | F,3 G, A,B, C2- | CB, A,2 G,4 | F,8 | z4 C,4 | D,2 B,,2 F,3 G, | A,B, C3 B, A,2 | %100
w: gau- di- um|no * * * *||strum,|gau-|di- um no *||
 G,4 F,4- | F,4 z4 | C,4 D,2 B,,2 | F,3 G, A,2 B,2 | C2 A,2 G,4 | F,4 z2 F,2- | F,2 F,2 E,2 D,2 | %107
w: * strum,||gau- di- um|no- * * *||strum, pa-|* nis an- ge-|
 F,4 C,2 G,2 | F,3 G, A,B, C2- | C2 A,2 B,2 C2 | F,8 | C6 B,2 | C2 D2 C4- | C4 F,4 | G,4 G,4 | %115
w: \-lo- * *|* * rum, * an-|* ge- lo- *|rum,|cor- dis|nu- bi- lus|* rex|et spon-|
 F,4 B,,4 | F,6 E,2 | D,2 B,,2 C,4 | F,8 |[M:4/4] C,4 D,4 | F,6 F,2 | F,4 z2 F,2- | %122
w: sus vir-|gi- ni-|ta- * *|~tis.|A- ~ve,|do- mi-|ne Ie-|
 F,2 E,2 F,2 G,2 | E,2 F,2 B,,4 | z2 F,2 A,4 | C6 C2 | C3 B, A,2 G,2 | A,2 F,2 G,4 | %128
w: * su Chri *|* * ste,|a- ve,|do- mi-|\-ne * * Ie-|su Chri *|
 F,3 G, A,2 B,2 | A,2 F,2 C4 | F,8 | z8 | F,6 G,2 | A,4 F,4 | G,2 A,2 B,2 G,2 | F,3 G, A,2 B,2 | %136
w: ste, * * rex|be- ne- dic-|~te,||splen- dor|pa- tris,|prin- ceps pa *||
 C2 A,2 G,4 | F,6 G,2 | A,4 F,4 | G,2 A,2 B,2 G,2 | F,3 G, A,2 B,2 | C2 A,2 G,4 | F,4 G,3 F, | %143
w: * * ~cis,|splen- dor|pa- tris,|prin- ceps pa- *||* * cis,|prin- * *|
 E,2 F,2 D,4 | C,2 C4 B,2 | C4 F,4 | z2 G,2 A,2 F,2 | B,4 A,2 B,2 | G,4 F,4 | z4 C,4 | F,6 E,2 | %151
w: * ceps pa-|cis, prin- ceps|pa- cis,|ia- nu- a|cae * *|* li,|pa-|nis vi-|
 C,2 F,2 E,2 C,2 | D,2 E,2 F,3 E, | D,4 C,4 | F,4 z4 | z4 F,4 | G,4 A,4 | B,3 A, G,4 | F,4 B,,4 | %159
w: vus vir- gi- nis|par * * *|* tus,||vas|pu- ri-|ta * *|* ~tis,|
 z2 C,2 D,4 | E,4 F,4 | B,,4 C,4 | z8 | C6 C2 | A,4 A,4 | F,8 | C8 | z4 F,2 F,2 | G,4 D,2 F,2 | %169
w: vas pu-|ri- ta-|* ~tis.||A- ve,|do- mi-|ne||Ie- su|Chri- ste, be-|
 C,2 C,2 D,3 E, | F,2 C,2 D,2 B,,2 | C,6 C,2 | C,2 F,3 E,D,C, | D,2 G,4 C,2 | z2 F,2 F,2 B,2- | %175
w: ne- dic- * *||~te, laus|an- ge- * * *|* lo- rum,|laus an- ge-|
 B,A,G,F, G,2 A,2 | F,4 z4 | z4 z2 F,2 | F,2 B,3 A,G,F, | G,2 A,2 F,3 E, | D,2 G,3 F,E,D, | %181
w: * * * * * lo-|rum,|glo-|ri- a * * *|* sanc- to *||
 E,2 F,2 D,4 | C,4 z2 F,2 | G,2 B,2 A,3 G, | F,2 E,2 D,4 | C,2 B,,2 F,4 | z8 | F,8- | F,4 G,4 | %189
w: |\-rum, vi-|si- o pa- *||* * cis,||de-|* i-|
 A,8 | F,4 G,3 A, | B,8 | F,8- | F,8 | z8 | z8 | z8 | C,6 C,2 | F,4 D,2 E,2 | F,2 G,3 F,E,D, | %200
w: tas|in- te *||gra,|||||ve- rus|ho- mo, flos|et vi- * * *|
 E,2 F,2 D,4 | C,8 | z2 F,4 F,2 | B,4 G,4 | C6 B,2 | A,2 F,2 G,4 | A,4 F,4 | z4 F,4 | %208
w: |~ta,|ve- rus|ho- mo,|flos et|vi * *|* ta,|vir-|
 E,2 D,2 C,3 D, | _E,2 F,2 C,D,=E,F, | G,2 F,2 B,3 A, | G,2 F,4 G,2 | D,2 F,2 C,4 | F,8 | %214
w: \-gi- ni- ta *|||||~tis.|
[M:4/4] z8 | z4 F,4- | F,2 F,2 G,2 A,2 | B,4 B,2 B,2 | A,8 | G,4 F,3 G, | A,2 B,2 G,2 A,2 | %221
w: |A-|* ve, do- mi-|ne Ie- su|Chri-|ste, rex *|be- ne- dic *|
 F,2 E,2 D,4 | C,2 C4 A,2 | B,2 C2 F,4- | F,4 C4 | B,2 G,2 B,3 A, | F,G,A,B, C2 D2 | %227
w: |\-te, rex be-|ne- dic- te,|* rex|be- ne- dic- *||
 B,2 C2 F,3 E, | D,2 G,4 F,2 | D,2 E,2 F,2 G,2 | C,3 D, E,2 F,2 | D,4 C,4 | z2 G,4 F,2 | %233
w: |\-te, rex be-|ne- dic * *||* te,|vi- ta|
 G,2 E,2 F,2 G,2 | C,4 z4 | F,6 E,2 | C,2 D,2 E,2 F,2 | D,2 C,2 D,2 B,,C, | D,E, F,4 E,2 | F,4 z4 | %240
w: dul- cis ve- ri-|\-tas,|vi- ta|dul- cis ve- ri-|tas per- fec- * *||ta,|
 z8 | z8 | z4 B,4 | A,2 F,2 A,4 | G,4 B,4 | F,2 A,2 G,2 A,2 | F,2 E,2 D,4 | C,8- | C,4 z4 | %249
w: ||prae-|mi- um no-|strum, cha-|ri- tas im- *|men * *|\-sa,||
 F,6 F,2 | E,4 D,2 F,2- | F,2 E,D, E,2 F,2 | B,,4 F,4- | F,4 G,2 A,2 | B,2 A,G, A,2 F,2 | %255
w: fons a-|mo * *||ris, dul-|* ce- do,|pax * * * du-|
 C2 A,2 G,4 | z4 z2 C,2 | D,2 E,2 F,3 E, | C,2 F,4 E,2 | D,4 C,4 | z2 C,2 D,2 E,2 | %261
w: ra- bi- lis,|dul-|ce- do, pax *|* du- ra-|bi- ~lis,|dul- ce- do,|
 F,3 G, A,2 B,2- | B,2 F,2 G,4 | D,4 F,4 | C,2 C,2 G,4 | D,4 F,4 | C,2 C,2 G,4 | D,4 A,4 | %268
w: pax * * du-|* ra- bi-|lis, re-|qui- es no-|stra, re-|qui- es no-|\-stra, vi-|
 G,2 G,2 B,4 | F,4 A,4 | G,2 G,2 B,4 | F,3 G, A,4 | G,4 z2 F,2 | B,6 A,2 | G,3 F, E,2 F,2 | %275
w: ta per- hen-|nis, vi-|ta per- hen-|nis, * *|* mi-|\-se- *|re- * * re|
 D,4 C,4 | G,2 A,2 F,2 G,2 | E,2 F,2 D,4 | C,4 z4 | C,4 F,4 | D,4 C,4 | D,3 E, F,2 C,2 | %282
w: no- bis,|mi- se- re- *|* re no-|bis,|mi- se-|re- re|no- * bis, mi-|
 D,2 B,,2 C,4 | D,4 B,,4- | B,,8 | F,8 |] %286
w: se- re- re|* no-||~bis.|

